X: 7
T: Jackson's Morning Brush
R: jig
M: 6/8
L: 1/8
K: Dmaj
z | DFE EFD | DF/E/D AFA | BGB def | g-~g2 ecA | DFE EFD | DF/E/D AFA | BGB d2 e | fdc d2 :|g | fed faf | ede fdB | AFA def | g-~g2 efg | fed faf | ede fdB | AFA d2 e | fdc d2 :|


Tune 2699	Setting 15935

